svg/u1f6b0.svg

<svg viewBox="0 0 128 128" xmlns="http://www.w3.org/2000/svg">
  <g>
    <path d="M116,4H12c-4.42,0-8,3.58-8,8v104c0,4.42,3.58,8,8,8h104c4.42,0,8-3.58,8-8V12 C124,7.58,120.42,4,116,4z" fill="#194FA5"/>
    <path d="M109.7,4H11.5C7.37,4.03,4.03,7.37,4,11.5v97.9c-0.01,4.14,3.34,7.49,7.48,7.5c0.01,0,0.01,0,0.02,0 h98.1c4.14,0.01,7.49-3.34,7.5-7.48c0-0.01,0-0.01,0-0.02V11.5c0.09-4.05-3.13-7.41-7.18-7.5C109.85,4,109.77,4,109.7,4z" fill="#2262DD"/>
    <path d="M39.7,12.9c0-2.3-1.6-3-10.8-2.7c-7.7,0.3-11.5,1.2-13.8,4c-1.9,2.3-2.3,5.6-2.6,8.4 c-0.2,2.2-2.2,14.9,3.5,11.2c0.68-0.45,1.23-1.07,1.6-1.8c1.2-2.1,1.9-3.5,3.3-5.6C26.2,17.8,39.7,15.9,39.7,12.9z" fill="#68ABE6"/>
    <path d="M53.7,68.6c-0.22,0.13-0.37,0.35-0.4,0.6l-1,4.5c-0.1,0.47-0.52,0.81-1,0.8H19.7 c-0.48,0.01-0.9-0.33-1-0.8l-1-4.5c-0.1-0.2-0.2-0.5-0.4-0.6C14.8,67,12.6,69,13,71l7.3,32.9c0.67,2.99,3.33,5.11,6.4,5.1h17.6 c3.05,0.04,5.7-2.1,6.3-5.1L57.9,71C58.4,69,56.2,67,53.7,68.6z M21.3,79.5h28.4c0.58,0.03,1.04,0.52,1.01,1.11 c0,0.03,0,0.06-0.01,0.09L49,88.2c-0.12,0.46-0.53,0.78-1,0.8H23c-0.48,0.01-0.9-0.33-1-0.8l-1.7-7.5 c-0.08-0.58,0.33-1.11,0.91-1.19C21.24,79.5,21.27,79.5,21.3,79.5z" fill="#FAFAFA"/>
    <path d="M106.1,31.2l-2.9,1.5c-1.36,0.68-2.21,2.08-2.2,3.6V37c0,1.1-0.9,2-2,2H88.1 c-0.77,0.03-1.48-0.4-1.8-1.1c-1.49-3.32-4.07-6.03-7.3-7.7V26c0-0.55,0.45-1,1-1h9l1.1,0.5c0.99,0.5,2.19,0.1,2.69-0.89 c0.14-0.28,0.22-0.6,0.21-0.91v-5.5c0.01-1.1-0.88-2.01-1.99-2.01c-0.32,0-0.63,0.07-0.91,0.21L89,17h-9c-0.55,0-1-0.45-1-1 c0-1.66-1.34-3-3-3h-6c-1.66,0-3,1.34-3,3c0,0.55-0.45,1-1,1h-9l-1.1-0.6c-0.99-0.5-2.19-0.1-2.69,0.89 C53.07,17.57,53,17.88,53,18.2v5.5c-0.01,1.1,0.88,2.01,1.99,2.01c0.32,0,0.63-0.07,0.91-0.21L57,25h9c0.55,0,1,0.45,1,1v4.2 c-3.21,1.7-5.78,4.4-7.3,7.7c-0.32,0.7-1.03,1.13-1.8,1.1h-8.7C38.08,38.97,29.03,47.96,29,59.08c0,0.04,0,0.08,0,0.12V62 c0,1.66,1.34,3,3,3h6c1.66,0,3-1.34,3-3v-2.8c0.02-4.52,3.68-8.18,8.2-8.2h8.1c0.84,0,1.59,0.52,1.9,1.3 c2.3,6.1,7.6,10.4,13.8,10.4s11.6-4.3,13.8-10.4c0.31-0.78,1.06-1.3,1.9-1.3H99c1.1,0,2,0.9,2,2v2.3c0.03,1.51,0.87,2.89,2.2,3.6 l2.9,1.5c0.99,0.5,2.19,0.1,2.69-0.89c0.14-0.28,0.22-0.6,0.21-0.91V33c0.01-1.1-0.88-2.01-1.99-2.01 C106.7,30.98,106.38,31.06,106.1,31.2z" fill="#FFFFFF"/>
  </g>
</svg>

<svg viewBox="0 0 128 128" xmlns="http://www.w3.org/2000/svg">
  <defs/>
  <path d="M116,4 L12,4 C7.58,4 4,7.58 4,12 L4,116 C4,120.42 7.58,124 12,124 L116,124 C120.42,124 124,120.42 124,116 L124,12 C124,7.58 120.42,4 116,4 Z" fill="#194FA5"/>
  <path d="M109.7,4 L11.5,4 C7.37,4.03 4.03,7.37 4,11.5 L4,109.4 C3.99,113.54 7.34,116.89 11.48,116.9 C11.49,116.9 11.49,116.9 11.5,116.9 L109.6,116.9 C113.74,116.91 117.09,113.56 117.1,109.42 C117.1,109.41 117.1,109.41 117.1,109.4 L117.1,11.5 C117.19,7.45 113.97,4.09 109.92,4 C109.85,4 109.77,4 109.7,4 Z" fill="#2262DD"/>
  <path d="M39.7,12.9 C39.7,10.6 38.1,9.9 28.9,10.2 C21.2,10.5 17.4,11.4 15.1,14.2 C13.2,16.5 12.8,19.8 12.5,22.6 C12.3,24.8 10.3,37.5 16,33.8 C16.68,33.35 17.23,32.73 17.6,32 C18.8,29.9 19.5,28.5 20.9,26.4 C26.2,17.8 39.7,15.9 39.7,12.9 Z" fill="#68ABE6"/>
  <path d="M53.7,68.6 C53.48,68.73 53.33,68.95 53.3,69.2 L52.3,73.7 C52.2,74.17 51.78,74.51 51.3,74.5 L19.7,74.5 C19.22,74.51 18.8,74.17 18.7,73.7 L17.7,69.2 C17.6,69 17.5,68.7 17.3,68.6 C14.8,67 12.6,69 13,71 L20.3,103.9 C20.97,106.89 23.63,109.01 26.7,109 L44.3,109 C47.35,109.04 50,106.9 50.6,103.9 L57.9,71 C58.4,69 56.2,67 53.7,68.6 Z M21.3,79.5 L49.7,79.5 C50.28,79.53 50.74,80.02 50.71,80.61 C50.71,80.64 50.71,80.67 50.7,80.7 L49,88.2 C48.88,88.66 48.47,88.98 48,89 L23,89 C22.52,89.01 22.1,88.67 22,88.2 L20.3,80.7 C20.22,80.12 20.63,79.59 21.21,79.51 C21.24,79.5 21.27,79.5 21.3,79.5 Z" fill="#FAFAFA"/>
  <path d="M106.1,31.2 L103.2,32.7 C101.84,33.38 100.99,34.78 101,36.3 L101,37 C101,38.1 100.1,39 99,39 L88.1,39 C87.33,39.03 86.62,38.6 86.3,37.9 C84.81,34.58 82.23,31.87 79,30.2 L79,26 C79,25.45 79.45,25 80,25 L89,25 L90.1,25.5 C91.09,26 92.29,25.6 92.79,24.61 C92.93,24.33 93.01,24.01 93,23.7 L93,18.2 C93.01,17.1 92.12,16.19 91.01,16.19 C90.69,16.19 90.38,16.26 90.1,16.4 L89,17 L80,17 C79.45,17 79,16.55 79,16 C79,14.34 77.66,13 76,13 L70,13 C68.34,13 67,14.34 67,16 C67,16.55 66.55,17 66,17 L57,17 L55.9,16.4 C54.91,15.9 53.71,16.3 53.21,17.29 C53.07,17.57 53,17.88 53,18.2 L53,23.7 C52.99,24.8 53.88,25.71 54.99,25.71 C55.31,25.71 55.62,25.64 55.9,25.5 L57,25 L66,25 C66.55,25 67,25.45 67,26 L67,30.2 C63.79,31.9 61.22,34.6 59.7,37.9 C59.38,38.6 58.67,39.03 57.9,39 L49.2,39 C38.08,38.97 29.03,47.96 29,59.08 C29,59.12 29,59.16 29,59.2 L29,62 C29,63.66 30.34,65 32,65 L38,65 C39.66,65 41,63.66 41,62 L41,59.2 C41.02,54.68 44.68,51.02 49.2,51 L57.3,51 C58.14,51 58.89,51.52 59.2,52.3 C61.5,58.4 66.8,62.7 73,62.7 C79.2,62.7 84.6,58.4 86.8,52.3 C87.11,51.52 87.86,51 88.7,51 L99,51 C100.1,51 101,51.9 101,53 L101,55.3 C101.03,56.81 101.87,58.19 103.2,58.9 L106.1,60.4 C107.09,60.9 108.29,60.5 108.79,59.51 C108.93,59.23 109.01,58.91 109,58.6 L109,33 C109.01,31.9 108.12,30.99 107.01,30.99 C106.7,30.98 106.38,31.06 106.1,31.2 Z" fill="#FFFFFF"/>
</svg>
